ukui-icon-theme-default/scalable/mimetypes/application-archive-zip.svg

<?xml version="1.0" encoding="utf-8"?>
<!-- Generator: Adobe Illustrator 24.0.0, SVG Export Plug-In . SVG Version: 6.00 Build 0)  -->
<svg version="1.1" id="图层_1" xmlns="http://www.w3.org/2000/svg" xmlns:xlink="http://www.w3.org/1999/xlink" x="0px" y="0px"
	 viewBox="0 0 96 96" enable-background="new 0 0 96 96" xml:space="preserve">
<title>96</title>
<g id="压缩文件">
	<g id="_96">
		<g id="底色-浅橙">
			
				<linearGradient id="_48_1_" gradientUnits="userSpaceOnUse" x1="48" y1="-612" x2="48" y2="-696" gradientTransform="matrix(1 0 0 -1 0 -606)">
				<stop  offset="0" style="stop-color:#FEDA3E"/>
				<stop  offset="1" style="stop-color:#E5B104"/>
			</linearGradient>
			<path id="_48" fill="url(#_48_1_)" d="M82,69V15c0-5-4-9-9-9H23c-5,0-9,4-9,9v66c0,5,4,9,9,9h38.2L82,69z"/>
			
				<linearGradient id="SVGID_1_" gradientUnits="userSpaceOnUse" x1="63.9195" y1="-679.1906" x2="70.5395" y2="-684.7006" gradientTransform="matrix(1 0 0 -1 0 -606)">
				<stop  offset="0" style="stop-color:#FFFFFF;stop-opacity:0.4"/>
				<stop  offset="1" style="stop-color:#FFFFFF;stop-opacity:0.2"/>
			</linearGradient>
			<path fill="url(#SVGID_1_)" d="M68,69h14L61,90V76C61,72.1,64.1,69,68,69z"/>
		</g>
		<path fill="#907C3B" d="M28,50v8c0,2.8,2.2,5,5,5h1c2.8,0,5-2.2,5-5v-8H28z M36,60h-5v-4h5V60z"/>
		<rect x="28" y="6" fill="#EAEAEA" width="11" height="44"/>
		<rect x="32" y="9" fill="#907C3B" width="7" height="3"/>
		<rect x="32" y="15" fill="#907C3B" width="7" height="3"/>
		<rect x="32" y="21" fill="#907C3B" width="7" height="3"/>
		<rect x="32" y="27" fill="#907C3B" width="7" height="3"/>
		<rect x="32" y="33" fill="#907C3B" width="7" height="3"/>
		<rect x="32" y="39" fill="#907C3B" width="7" height="3"/>
		<rect x="32" y="45" fill="#907C3B" width="7" height="3"/>
		<rect x="28" y="24" fill="#907C3B" width="7" height="3"/>
		<rect x="28" y="18" fill="#907C3B" width="7" height="3"/>
		<rect x="28" y="12" fill="#907C3B" width="7" height="3"/>
		<rect x="28" y="6" fill="#907C3B" width="7" height="3"/>
		<rect x="28" y="30" fill="#907C3B" width="7" height="3"/>
		<rect x="28" y="42" fill="#907C3B" width="7" height="3"/>
		<rect x="28" y="36" fill="#907C3B" width="7" height="3"/>
		<polyline fill="none" stroke="#A08C53" stroke-width="2" stroke-miterlimit="10" points="43,49 51.5,49 44.5,61 53,61 		"/>
		<line fill="none" stroke="#A08C53" stroke-width="2" stroke-miterlimit="10" x1="56" y1="48" x2="56" y2="62"/>
		<line fill="none" stroke="#A08C53" stroke-width="2" stroke-miterlimit="10" x1="61" y1="48" x2="61" y2="62"/>
		<path fill="none" stroke="#A08C53" stroke-width="2" stroke-miterlimit="10" d="M66,55h-5v-6h5c1.7,0,3,1.3,3,3l0,0
			C69,53.7,67.7,55,66,55z"/>
	</g>
</g>
</svg>

<svg xmlns="http://www.w3.org/2000/svg" xmlns:xlink="http://www.w3.org/1999/xlink" viewBox="0 0 96 96"><defs><style>.cls-1{fill:url(#未命名的渐变_19);}.cls-2{fill:url(#未命名的渐变_158);}.cls-3{fill:#907c3b;}.cls-4{fill:#eaeaea;}.cls-5{fill:none;stroke:#a08c53;stroke-miterlimit:10;stroke-width:2px;}</style><linearGradient id="未命名的渐变_19" x1="48" y1="708" x2="48" y2="792" gradientTransform="translate(0 -702)" gradientUnits="userSpaceOnUse"><stop offset="0" stop-color="#feda3e"/><stop offset="1" stop-color="#e5b104"/></linearGradient><linearGradient id="未命名的渐变_158" x1="63.92" y1="775.19" x2="70.54" y2="780.7" gradientTransform="translate(0 -702)" gradientUnits="userSpaceOnUse"><stop offset="0" stop-color="#fff" stop-opacity="0.4"/><stop offset="1" stop-color="#fff" stop-opacity="0.2"/></linearGradient></defs><title>96</title><g id="压缩文件"><g id="_96" data-name="96"><g id="底色-浅橙"><path id="_48" data-name=" 48" class="cls-1" d="M82,69V15a9,9,0,0,0-9-9H23a9,9,0,0,0-9,9V81a9,9,0,0,0,9,9H61.16Z"/><path class="cls-2" d="M68,69H82L61,90V76A7,7,0,0,1,68,69Z"/></g><path class="cls-3" d="M28,50v8a5,5,0,0,0,5,5h1a5,5,0,0,0,5-5V50Zm8,10H31V56h5Z"/><rect class="cls-4" x="28" y="6" width="11" height="44"/><rect class="cls-3" x="32" y="9" width="7" height="3"/><rect class="cls-3" x="32" y="15" width="7" height="3"/><rect class="cls-3" x="32" y="21" width="7" height="3"/><rect class="cls-3" x="32" y="27" width="7" height="3"/><rect class="cls-3" x="32" y="33" width="7" height="3"/><rect class="cls-3" x="32" y="39" width="7" height="3"/><rect class="cls-3" x="32" y="45" width="7" height="3"/><rect class="cls-3" x="28" y="24" width="7" height="3"/><rect class="cls-3" x="28" y="18" width="7" height="3"/><rect class="cls-3" x="28" y="12" width="7" height="3"/><rect class="cls-3" x="28" y="6" width="7" height="3"/><rect class="cls-3" x="28" y="30" width="7" height="3"/><rect class="cls-3" x="28" y="42" width="7" height="3"/><rect class="cls-3" x="28" y="36" width="7" height="3"/><polyline class="cls-5" points="43 49 51.5 49 44.5 61 53 61"/><line class="cls-5" x1="56" y1="48" x2="56" y2="62"/><line class="cls-5" x1="61" y1="48" x2="61" y2="62"/><path class="cls-5" d="M66,55H61V49h5a3,3,0,0,1,3,3h0A3,3,0,0,1,66,55Z"/></g></g></svg>
